X: 1
T: Le Jour Rouge
M: 4/4
L: 1/8
R: reel
K: Amin
cB AG EG (3GGG|BG cG BA Bd|cB AG EG (3GGG|ED EG A2 AB:|
c2 ec gc ec|A2 eA fA eA|d2 (3ddd dc BA|GA BG AB dB|
c2 ec gc ec|A2 eA fA eA|dc BA G2 (3GGG|ED EG A2 AB|
